src/assets/pictos/night_picto.svg

<svg fill="none" height="27" viewBox="0 0 24 27" width="24" xmlns="http://www.w3.org/2000/svg"><path d="m23.5397 21.7498c-.08-.1648-.2088-.3012-.3692-.3906-.1603-.0894-.3444-.1276-.5272-.1094h-.762c-2.2305-.0605-4.3745-.8728-6.0816-2.3042-1.7071-1.4313-2.8762-3.397-3.3165-5.5759-.4402-2.1789-.1254-4.44203.8929-6.41963 1.0183-1.97761 2.68-3.55273 4.7134-4.46794.1738-.07266.3202-.19804.4184-.35833s.1431-.34733.1284-.53452c-.0061-.17996-.0668-.35385-.174-.49884-.1072-.145004-.2559-.254337-.4266-.313652-1.4375-.515788-2.9541-.77863059-4.482-.77677828-3.59467 0-7.0421 1.42230028-9.58391 3.95402028s-3.96979 5.96547-3.96979 9.54587 1.42798 7.0141 3.96979 9.5458c2.54181 2.5318 5.98924 3.9541 9.58391 3.9541 1.8538.0111 3.6892-.3654 5.3878-1.1052 1.6985-.7398 3.2222-1.8263 4.4727-3.1894.1104-.1307.181-.2901.2032-.4594.0223-.1693-.0047-.3415-.0777-.496zm-9.9591 3.5089c-3.1192 0-6.11062-1.2342-8.31621-3.431s-3.44468-5.1764-3.44468-8.2832 1.23909-6.08631 3.44468-8.28315c2.20559-2.19683 5.19701-3.431 8.31621-3.431.6006-.00312 1.2004.04467 1.7928.14286-1.9202 1.33998-3.3899 3.2257-4.2171 5.41078-.8273 2.18507-.9735 4.56791-.4197 6.83701.5538 2.2692 1.782 4.3192 3.524 5.8822s3.9168 2.5663 6.2403 2.8787c-1.9955 1.4908-4.4259 2.2904-6.9203 2.2768z" fill="#fff"/></svg>

<svg width="24" height="27" viewBox="0 0 24 27" fill="none" xmlns="http://www.w3.org/2000/svg">
<path d="M23.5397 21.7498C23.4597 21.585 23.3309 21.4486 23.1705 21.3592C23.0102 21.2698 22.8261 21.2316 22.6433 21.2498H21.8813C19.6508 21.1893 17.5068 20.377 15.7997 18.9456C14.0926 17.5143 12.9235 15.5486 12.4832 13.3697C12.043 11.1908 12.3578 8.92767 13.3761 6.95007C14.3944 4.97246 16.0561 3.39734 18.0895 2.48213C18.2633 2.40947 18.4097 2.28409 18.5079 2.1238C18.6061 1.96351 18.651 1.77647 18.6363 1.58928C18.6302 1.40932 18.5695 1.23543 18.4623 1.09044C18.3551 0.945436 18.2064 0.836103 18.0357 0.776788C16.5982 0.261 15.0816 -0.00184259 13.5537 9.72226e-06C9.95903 9.72226e-06 6.5116 1.42231 3.96979 3.95403C1.42798 6.48575 0 9.9195 0 13.4999C0 17.0803 1.42798 20.514 3.96979 23.0457C6.5116 25.5775 9.95903 26.9998 13.5537 26.9998C15.4075 27.0109 17.2429 26.6344 18.9415 25.8946C20.64 25.1548 22.1637 24.0683 23.4142 22.7052C23.5246 22.5745 23.5952 22.4151 23.6174 22.2458C23.6397 22.0765 23.6127 21.9043 23.5397 21.7498ZM13.5806 25.2587C10.4614 25.2587 7.46998 24.0245 5.26439 21.8277C3.0588 19.6309 1.81971 16.6513 1.81971 13.5445C1.81971 10.4377 3.0588 7.45819 5.26439 5.26135C7.46998 3.06452 10.4614 1.83035 13.5806 1.83035C14.1812 1.82723 14.781 1.87502 15.3734 1.97321C13.4532 3.31319 11.9835 5.19891 11.1563 7.38399C10.329 9.56906 10.1828 11.9519 10.7366 14.221C11.2904 16.4902 12.5186 18.5402 14.2606 20.1032C16.0026 21.6662 18.1774 22.6695 20.5009 22.9819C18.5054 24.4727 16.075 25.2723 13.5806 25.2587Z" fill="white"/>
</svg>
